img/svg/location-ico.svg

<svg width="48" height="48" viewBox="0 0 48 48" fill="none" xmlns="http://www.w3.org/2000/svg">
<rect width="48" height="48" fill="#EBECF8"/>
<path d="M34.0152 25.6782C33.5659 25.6782 33.2016 26.0425 33.2016 26.4918V31.5769C33.2016 32.4742 32.4717 33.2041 31.5743 33.2041H17.2545C16.3573 33.2041 15.6273 32.4742 15.6273 31.5769V31.4955C15.6273 30.5983 16.3573 29.8682 17.2545 29.8682H18.9179C19.3674 29.8682 19.7315 29.5041 19.7315 29.0546V20.9591H21.2413C21.6906 20.9591 22.0549 20.5948 22.0549 20.1455C22.0549 19.696 21.6906 19.3319 21.2413 19.3319H19.7315V17.2978C19.7315 16.8483 19.3674 16.4842 18.9179 16.4842H17.2545C15.4599 16.4842 14 17.9441 14 19.7387V31.5769C14 33.3715 15.4599 34.8314 17.2545 34.8314H31.5743C33.3689 34.8314 34.8288 33.3715 34.8288 31.5769V26.4918C34.8288 26.0425 34.4647 25.6782 34.0152 25.6782ZM15.6273 19.7387C15.6273 18.8413 16.3573 18.1114 17.2545 18.1114H18.1043V28.241H17.2545C16.6622 28.241 16.1062 28.4002 15.6273 28.6777V19.7387ZM29.2148 22.131C27.8689 22.131 26.7739 21.036 26.7739 19.6901C26.7739 18.3442 27.8689 17.2492 29.2148 17.2492C30.5607 17.2492 31.6557 18.3442 31.6557 19.6901C31.6557 20.1394 31.2916 20.5038 30.8421 20.5038C30.3927 20.5038 30.0284 20.1394 30.0284 19.6901C30.0284 19.2414 29.6635 18.8765 29.2148 18.8765C28.7663 18.8765 28.4012 19.2414 28.4012 19.6901C28.4012 20.1388 28.7663 20.5038 29.2148 20.5038C29.6643 20.5038 30.0284 20.8681 30.0284 21.3174C30.0284 21.7667 29.6643 22.131 29.2148 22.131ZM28.4122 27.496C28.5612 27.732 28.8209 27.8749 29.0999 27.8749H29.4113C29.6903 27.8749 29.95 27.7318 30.099 27.496C30.6539 26.618 31.3573 25.8477 32.0375 25.1029C33.4286 23.5793 34.8672 22.0039 34.8696 19.6075C34.8659 16.5156 32.3475 14 29.2556 14C26.1635 14 23.6451 16.5156 23.6416 19.6092C23.6438 22.0039 25.0824 23.5793 26.4736 25.1029C27.1538 25.8477 27.8571 26.618 28.4122 27.496V27.496ZM29.2556 15.6273C31.4514 15.6273 33.2398 17.4136 33.2424 19.6076C33.2406 21.3721 32.1262 22.5926 30.8359 24.0057C30.3034 24.5888 29.7576 25.1865 29.2556 25.8566C28.7536 25.1865 28.2077 24.5888 27.6753 24.0057C26.3848 22.5926 25.2706 21.3721 25.2688 19.6094C25.2714 17.4136 27.0597 15.6273 29.2556 15.6273Z" fill="#4C51CC"/>
</svg>

<svg width="48" height="48" fill="none" xmlns="http://www.w3.org/2000/svg"><path fill="#EBECF8" d="M0 0h48v48H0z"/><path d="M34.015 25.678a.814.814 0 00-.813.814v5.085a1.63 1.63 0 01-1.628 1.627h-14.32c-.897 0-1.627-.73-1.627-1.627v-.082c0-.897.73-1.627 1.627-1.627h1.664c.45 0 .814-.364.814-.813v-8.096h1.51a.814.814 0 000-1.627h-1.51v-2.034a.813.813 0 00-.814-.814h-1.663A3.258 3.258 0 0014 19.74v11.838a3.258 3.258 0 003.255 3.254h14.32a3.258 3.258 0 003.254-3.254v-5.085a.814.814 0 00-.814-.814zm-18.388-5.94c0-.897.73-1.627 1.627-1.627h.85v10.13h-.85c-.592 0-1.148.16-1.627.437v-8.94zm13.588 2.393a2.444 2.444 0 01-2.441-2.44 2.444 2.444 0 012.44-2.442 2.444 2.444 0 012.442 2.441.814.814 0 11-1.628 0 .814.814 0 10-.813.814.814.814 0 110 1.627zm-.803 5.365a.813.813 0 00.688.379h.311a.814.814 0 00.688-.379c.555-.878 1.258-1.648 1.939-2.393 1.39-1.524 2.83-3.1 2.832-5.495A5.622 5.622 0 0029.256 14a5.622 5.622 0 00-5.614 5.61c.002 2.394 1.44 3.97 2.832 5.493.68.745 1.383 1.515 1.938 2.393zm.844-11.869a3.992 3.992 0 013.986 3.98c-.001 1.765-1.116 2.986-2.406 4.399-.533.583-1.078 1.18-1.58 1.85-.502-.67-1.048-1.267-1.58-1.85-1.291-1.413-2.405-2.634-2.407-4.397a3.992 3.992 0 013.987-3.982z" fill="#4C51CC"/></svg>
